src/assets/icons/multicolor/password.multicolor.svg

<svg width="32" height="32" fill="none">
  <path fill="inherit" d="M16 32c8.8365 0 16-7.1635 16-16 0-8.83655-7.1635-16-16-16C7.1634 0 0 7.16345 0 16c0 8.8366 7.1634 16 16 16zm0-1C7.72895 31 1 24.271 1 16S7.72895 1 16 1c8.271 0 15 6.729 15 15s-6.729 15-15 15z"/>
  <path fill="inherit" d="M23.4829 13H9.01712C8.45629 13 8 13.4577 8 14.0202v3.1094c0 .5625.45629 1.0202 1.01712 1.0202h9.04108c.1338 0 .2422-.1088.2422-.2429 0-.1342-.1084-.2429-.2422-.2429H9.01712c-.29377 0-.53278-.2398-.53278-.5344v-3.1094c0-.2946.23901-.5344.53278-.5344H23.4829c.2938 0 .5328.2398.5328.5344v2.332c0 .1342.1084.2429.2421.2429.1338 0 .2422-.1087.2422-.2429v-2.332c0-.5625-.4563-1.0202-1.0171-1.0202z"/>
  <path fill="inherit" d="M23.4666 16.9266v-.3152c0-1.1341-.9199-2.0567-2.0504-2.0567-1.1306 0-2.0504.9226-2.0504 2.0567v.3152c-.3.1017-.5167.3864-.5167.7212v2.5911c0 .4197.3404.7611.7588.7611h3.6165c.4184 0 .7588-.3414.7588-.7611v-2.5911c0-.3348-.2167-.6195-.5166-.7212zm-2.0504-1.8861c.8635 0 1.566.7047 1.566 1.5709v.2753h-3.1321v-.2753c0-.8662.7025-1.5709 1.5661-1.5709zm2.0826 5.1984c0 .1518-.1231.2753-.2744.2753h-3.6165c-.1513 0-.2744-.1235-.2744-.2753v-2.5911c0-.1518.1231-.2753.2744-.2753h3.6165c.1513 0 .2744.1235.2744.2753v2.5911zM11.9301 14.9351c-.0669-.1162-.215-.156-.3308-.0889l-.5316.3078v-.6157c0-.1341-.1084-.2429-.2422-.2429-.1337 0-.2421.1088-.2421.2429v.6157l-.5316-.3078c-.11585-.0671-.26397-.0273-.33084.0889-.06687.1162-.02719.2647.08864.3318l.5316.3079-.5316.3078c-.11583.0671-.15551.2157-.08864.3318.04485.078.12625.1215.20995.1215.04107 0 .08269-.0105.12089-.0326l.5316-.3078v.6157c0 .1342.1084.2429.2421.2429.1338 0 .2422-.1087.2422-.2429v-.6157l.5316.3078c.0381.0221.0798.0326.1208.0326.0837 0 .1651-.0435.21-.1215.0669-.1161.0272-.2647-.0886-.3318l-.5316-.3078.5316-.3079c.1158-.0671.1555-.2156.0886-.3318zM15.0297 14.9351c-.0669-.1162-.215-.156-.3308-.0889l-.5316.3078v-.6157c0-.1341-.1084-.2429-.2422-.2429-.1337 0-.2421.1088-.2421.2429v.6157l-.5316-.3078c-.1158-.0671-.264-.0273-.3308.0889-.0669.1162-.0272.2647.0886.3318l.5316.3079-.5316.3078c-.1158.0671-.1555.2157-.0886.3318.0448.078.1262.1215.2099.1215.0411 0 .0827-.0105.1209-.0326l.5316-.3078v.6157c0 .1342.1084.2429.2421.2429.1338 0 .2422-.1087.2422-.2429v-.6157l.5316.3078c.0381.0221.0798.0326.1209.0326.0837 0 .1651-.0435.2099-.1215.0669-.1161.0272-.2647-.0886-.3318l-.5316-.3078.5316-.3079c.1158-.0671.1555-.2156.0886-.3318zM18.1298 14.9351c-.0669-.1162-.215-.156-.3308-.0889l-.5316.3078v-.6157c0-.1341-.1084-.2429-.2422-.2429-.1337 0-.2421.1088-.2421.2429v.6157l-.5316-.3078c-.1158-.0671-.264-.0273-.3308.0889-.0669.1162-.0272.2647.0886.3318l.5316.3079-.5316.3078c-.1158.0671-.1555.2157-.0886.3318.0448.078.1262.1215.2099.1215.0411 0 .0827-.0105.1209-.0326l.5316-.3078v.6157c0 .1342.1084.2429.2421.2429.1338 0 .2422-.1087.2422-.2429v-.6157l.5316.3078c.0381.0221.0798.0326.1209.0326.0836 0 .1651-.0435.2099-.1215.0669-.1161.0272-.2647-.0886-.3318l-.5316-.3078.5316-.3079c.1158-.0671.1555-.2156.0886-.3318z"/>
  <path fill="inherit" d="M21.416 17.9229c-.4184 0-.7588.3414-.7588.7611 0 .3348.2167.6195.5167.7212v.3152c0 .1342.1084.2429.2421.2429.1338 0 .2422-.1087.2422-.2429v-.3152c.3-.1017.5166-.3864.5166-.7212 0-.4197-.3404-.7611-.7588-.7611zm0 1.0364c-.1513 0-.2744-.1235-.2744-.2753s.1231-.2753.2744-.2753c.1514 0 .2745.1235.2745.2753s-.1231.2753-.2745.2753z"/>
</svg>

<svg width="32" height="32" viewBox="0 0 32 32" fill="none" 
  xmlns="http://www.w3.org/2000/svg">
  <path d="M16 32C24.8365 32 32 24.8365 32 16C32 7.16345 24.8365 0 16 0C7.1634 0 0 7.16345 0 16C0 24.8366 7.1634 32 16 32ZM16 31C7.72895 31 1 24.271 1 16C1 7.729 7.72895 1 16 1C24.271 1 31 7.729 31 16C31 24.271 24.271 31 16 31Z" fill="inherit"/>
  <path d="M23.4829 13H9.01712C8.45629 13 8 13.4577 8 14.0202V17.1296C8 17.6921 8.45629 18.1498 9.01712 18.1498H18.0582C18.192 18.1498 18.3004 18.041 18.3004 17.9069C18.3004 17.7727 18.192 17.664 18.0582 17.664H9.01712C8.72335 17.664 8.48434 17.4242 8.48434 17.1296V14.0202C8.48434 13.7256 8.72335 13.4858 9.01712 13.4858H23.4829C23.7767 13.4858 24.0157 13.7256 24.0157 14.0202V16.3522C24.0157 16.4864 24.1241 16.5951 24.2578 16.5951C24.3916 16.5951 24.5 16.4864 24.5 16.3522V14.0202C24.5 13.4577 24.0437 13 23.4829 13Z" fill="inherit"/>
  <path d="M23.4666 16.9266V16.6114C23.4666 15.4773 22.5467 14.5547 21.4162 14.5547C20.2856 14.5547 19.3658 15.4773 19.3658 16.6114V16.9266C19.0658 17.0283 18.8491 17.313 18.8491 17.6478V20.2389C18.8491 20.6586 19.1895 21 19.6079 21H23.2244C23.6428 21 23.9832 20.6586 23.9832 20.2389V17.6478C23.9832 17.313 23.7665 17.0283 23.4666 16.9266ZM21.4162 15.0405C22.2797 15.0405 22.9822 15.7452 22.9822 16.6114V16.8867H19.8501V16.6114C19.8501 15.7452 20.5526 15.0405 21.4162 15.0405ZM23.4988 20.2389C23.4988 20.3907 23.3757 20.5142 23.2244 20.5142H19.6079C19.4566 20.5142 19.3335 20.3907 19.3335 20.2389V17.6478C19.3335 17.496 19.4566 17.3725 19.6079 17.3725H23.2244C23.3757 17.3725 23.4988 17.496 23.4988 17.6478V20.2389Z" fill="inherit"/>
  <path d="M11.9301 14.9351C11.8632 14.8189 11.7151 14.7791 11.5993 14.8462L11.0677 15.154V14.5383C11.0677 14.4042 10.9593 14.2954 10.8255 14.2954C10.6918 14.2954 10.5834 14.4042 10.5834 14.5383V15.154L10.0518 14.8462C9.93595 14.7791 9.78783 14.8189 9.72096 14.9351C9.65409 15.0513 9.69377 15.1998 9.8096 15.2669L10.3412 15.5748L9.8096 15.8826C9.69377 15.9497 9.65409 16.0983 9.72096 16.2144C9.76581 16.2924 9.84721 16.3359 9.93091 16.3359C9.97198 16.3359 10.0136 16.3254 10.0518 16.3033L10.5834 15.9955V16.6112C10.5834 16.7454 10.6918 16.8541 10.8255 16.8541C10.9593 16.8541 11.0677 16.7454 11.0677 16.6112V15.9955L11.5993 16.3033C11.6374 16.3254 11.6791 16.3359 11.7201 16.3359C11.8038 16.3359 11.8852 16.2924 11.9301 16.2144C11.997 16.0983 11.9573 15.9497 11.8415 15.8826L11.3099 15.5748L11.8415 15.2669C11.9573 15.1998 11.997 15.0513 11.9301 14.9351Z" fill="inherit"/>
  <path d="M15.0297 14.9351C14.9628 14.8189 14.8147 14.7791 14.6989 14.8462L14.1673 15.154V14.5383C14.1673 14.4042 14.0589 14.2954 13.9251 14.2954C13.7914 14.2954 13.683 14.4042 13.683 14.5383V15.154L13.1514 14.8462C13.0356 14.7791 12.8874 14.8189 12.8206 14.9351C12.7537 15.0513 12.7934 15.1998 12.9092 15.2669L13.4408 15.5748L12.9092 15.8826C12.7934 15.9497 12.7537 16.0983 12.8206 16.2144C12.8654 16.2924 12.9468 16.3359 13.0305 16.3359C13.0716 16.3359 13.1132 16.3254 13.1514 16.3033L13.683 15.9955V16.6112C13.683 16.7454 13.7914 16.8541 13.9251 16.8541C14.0589 16.8541 14.1673 16.7454 14.1673 16.6112V15.9955L14.6989 16.3033C14.737 16.3254 14.7787 16.3359 14.8198 16.3359C14.9035 16.3359 14.9849 16.2924 15.0297 16.2144C15.0966 16.0983 15.0569 15.9497 14.9411 15.8826L14.4095 15.5748L14.9411 15.2669C15.0569 15.1998 15.0966 15.0513 15.0297 14.9351Z" fill="inherit"/>
  <path d="M18.1298 14.9351C18.0629 14.8189 17.9148 14.7791 17.799 14.8462L17.2674 15.154V14.5383C17.2674 14.4042 17.159 14.2954 17.0252 14.2954C16.8915 14.2954 16.7831 14.4042 16.7831 14.5383V15.154L16.2515 14.8462C16.1357 14.7791 15.9875 14.8189 15.9207 14.9351C15.8538 15.0513 15.8935 15.1998 16.0093 15.2669L16.5409 15.5748L16.0093 15.8826C15.8935 15.9497 15.8538 16.0983 15.9207 16.2144C15.9655 16.2924 16.0469 16.3359 16.1306 16.3359C16.1717 16.3359 16.2133 16.3254 16.2515 16.3033L16.7831 15.9955V16.6112C16.7831 16.7454 16.8915 16.8541 17.0252 16.8541C17.159 16.8541 17.2674 16.7454 17.2674 16.6112V15.9955L17.799 16.3033C17.8371 16.3254 17.8788 16.3359 17.9199 16.3359C18.0035 16.3359 18.085 16.2924 18.1298 16.2144C18.1967 16.0983 18.157 15.9497 18.0412 15.8826L17.5096 15.5748L18.0412 15.2669C18.157 15.1998 18.1967 15.0513 18.1298 14.9351Z" fill="inherit"/>
  <path d="M21.416 17.9229C20.9976 17.9229 20.6572 18.2643 20.6572 18.684C20.6572 19.0188 20.8739 19.3035 21.1739 19.4052V19.7204C21.1739 19.8546 21.2823 19.9633 21.416 19.9633C21.5498 19.9633 21.6582 19.8546 21.6582 19.7204V19.4052C21.9582 19.3035 22.1748 19.0188 22.1748 18.684C22.1748 18.2643 21.8344 17.9229 21.416 17.9229ZM21.416 18.9593C21.2647 18.9593 21.1416 18.8358 21.1416 18.684C21.1416 18.5322 21.2647 18.4087 21.416 18.4087C21.5674 18.4087 21.6905 18.5322 21.6905 18.684C21.6905 18.8358 21.5674 18.9593 21.416 18.9593Z" fill="inherit"/>
</svg>
